packages/dnb-eufemia/assets/icons/deleted_invoice.svg

<svg width="16" height="16" viewBox="0 0 16 16" fill="none" xmlns="http://www.w3.org/2000/svg">
<path d="M3.8562 2.99988V2.6499C3.8562 2.09762 4.30392 1.6499 4.8562 1.6499H10.0316C10.3257 1.6499 10.605 1.77941 10.795 2.00396L13.434 5.12284C13.5868 5.3034 13.6706 5.53227 13.6706 5.76879V13.3509C13.6706 13.9032 13.2229 14.3509 12.6706 14.3509H4.8562C4.30392 14.3509 3.8562 13.9032 3.8562 13.3509V12.9999M1 6.66667H2.43368M6.291 6.66667H4.88246M2.43368 6.66667H1.67308L2.14691 10.2387C2.16818 10.4832 2.40066 10.6665 2.65802 10.6665H4.65808C4.91544 10.6665 5.14792 10.4832 5.16919 10.2387L5.7051 6.66667H4.88246M2.43368 6.66667V5.92777C2.43368 5.66845 2.61038 5.5 2.88239 5.5H4.43374C4.70575 5.5 4.88246 5.66845 4.88246 5.92777V6.66667M2.43368 6.66667H4.88246" stroke="black" stroke-width="1.5" stroke-linecap="round" stroke-linejoin="round"/>
</svg>

<svg width="16" height="16" viewBox="0 0 16 16" fill="none" xmlns="http://www.w3.org/2000/svg"><path d="M3.856 3v-.35a1 1 0 0 1 1-1h5.176a1 1 0 0 1 .763.354l2.639 3.119a1 1 0 0 1 .237.646v7.582a1 1 0 0 1-1 1H4.856a1 1 0 0 1-1-1V13M1.673 5.316l.727 4.923c.021.244.253.427.51.427h2.48c.257 0 .489-.183.51-.427l.782-4.923m-5.009 0H.97m.703 0h5.01m0 0H7.3" stroke="#000" stroke-width="1.5" stroke-linecap="round" stroke-linejoin="round"/></svg>
